www/assets/icons/emergency.svg

<svg width="24" height="24" viewBox="0 0 24 24" xmlns="http://www.w3.org/2000/svg" fill='currentColor'><path d="M20.79 9.23L18.79 5.77L14 8.54V3H9.99999V8.54L5.20999 5.77L3.20999 9.23L7.99999 12L3.20999 14.77L5.20999 18.23L9.99999 15.46V21H14V15.46L18.79 18.23L20.79 14.77L16 12L20.79 9.23Z"/></svg>

<svg xmlns="http://www.w3.org/2000/svg" width="24" height="24" viewBox="0 0 24 24" fill='currentColor'><path d="m20.79 9.23-2-3.46L14 8.54V3h-4v5.54L5.21 5.77l-2 3.46L8 12l-4.79 2.77 2 3.46L10 15.46V21h4v-5.54l4.79 2.77 2-3.46L16 12z"/></svg>
